(
~sin_harm_bass.play;
~verb_leaves.play;
~crunchy_verb.play;
~total_branch.play;
~verb_pad.play;
~verb_sin.play;

~bp_saw.play;
~bp_saw2.play;
~bp_saw3.play;
~grain.play;
~ring1.play;
~ring2.play;
~ring3.play;
~crack.play;
);